X: 1818
T: Indeed Then You Wont
M:6/8
L:1/8
B:O'Neill's 1818
Z:"Transcribed by Bob Safranek, rjs@gsp.org"
K:G
   d | gfe d2 B | cBA BAG | gfe d2 B | cAF G2 d |
       gfe d2 B | cBA GBd | gbg d2 B | cAF G2  :|
|: G | FGA A2 d | cAd cAG | FGA A2 d | cAF G2 G |
       FGA A2 d | cAd cAG | gbg d2 B | cAF G2  :|


